src/assets/icon3.svg

<svg width="48" height="48" viewBox="0 0 48 48" fill="none" xmlns="http://www.w3.org/2000/svg">
<path d="M7.74645 24.2524C8.09991 24.2524 8.38645 23.9659 8.38645 23.6124C8.38645 23.2589 8.09991 22.9724 7.74645 22.9724C7.39298 22.9724 7.10645 23.2589 7.10645 23.6124C7.10645 23.9659 7.39298 24.2524 7.74645 24.2524Z" fill="white"/>
<path d="M14.069 10.2499C14.194 10.3748 14.3578 10.4374 14.5215 10.4374C14.6852 10.4374 14.849 10.3748 14.974 10.2499L15.4264 9.79738L15.8789 10.2499C16.0039 10.3748 16.1677 10.4374 16.3314 10.4374C16.4951 10.4374 16.6589 10.3748 16.7839 10.2499C16.9039 10.1298 16.9713 9.96709 16.9713 9.79738C16.9713 9.62768 16.9039 9.46492 16.7839 9.3449L16.3314 8.89242L16.784 8.43994C16.8452 8.38091 16.8939 8.31029 16.9275 8.2322C16.961 8.15412 16.9787 8.07014 16.9794 7.98516C16.9801 7.90018 16.964 7.81591 16.9318 7.73725C16.8996 7.6586 16.8521 7.58714 16.792 7.52705C16.7319 7.46696 16.6604 7.41944 16.5818 7.38726C16.5031 7.35508 16.4188 7.33889 16.3339 7.33962C16.2489 7.34036 16.1649 7.35802 16.0868 7.39156C16.0087 7.4251 15.9381 7.47386 15.8791 7.53498L15.4266 7.98746L14.9741 7.53498C14.9151 7.47386 14.8445 7.4251 14.7664 7.39156C14.6883 7.35802 14.6043 7.34036 14.5193 7.33962C14.4344 7.33889 14.3501 7.35508 14.2714 7.38726C14.1928 7.41944 14.1213 7.46696 14.0612 7.52705C14.0011 7.58714 13.9536 7.6586 13.9214 7.73725C13.8893 7.81591 13.8731 7.90018 13.8738 7.98516C13.8745 8.07014 13.8922 8.15412 13.9257 8.2322C13.9593 8.31029 14.008 8.38091 14.0692 8.43994L14.5216 8.89242L14.0692 9.3449C14.0097 9.40428 13.9625 9.4748 13.9303 9.55244C13.898 9.63007 13.8815 9.7133 13.8814 9.79735C13.8814 9.8814 13.898 9.96464 13.9302 10.0423C13.9624 10.1199 14.0095 10.1905 14.069 10.2499ZM9.02645 13.3724C7.96773 13.3724 7.10645 14.2337 7.10645 15.2924C7.10645 16.3511 7.96773 17.2124 9.02645 17.2124C10.0852 17.2124 10.9464 16.3511 10.9464 15.2924C10.9464 14.2337 10.0853 13.3724 9.02645 13.3724ZM9.02645 15.9324C8.67365 15.9324 8.38645 15.6452 8.38645 15.2924C8.38645 14.9396 8.67365 14.6524 9.02645 14.6524C9.37925 14.6524 9.66645 14.9396 9.66645 15.2924C9.66645 15.6452 9.37925 15.9324 9.02645 15.9324ZM29.1864 38.9724H26.3064V27.4524C26.3064 27.3027 26.254 27.1577 26.158 27.0427L22.958 23.2027C22.8715 23.0988 22.7543 23.025 22.6233 22.9918C22.4922 22.9586 22.354 22.9678 22.2285 23.018L19.0285 24.298C18.8709 24.3611 18.7448 24.4842 18.6779 24.6403C18.611 24.7963 18.6089 24.9725 18.6719 25.1302C18.7351 25.2877 18.8583 25.4136 19.0143 25.4805C19.1702 25.5473 19.3464 25.5496 19.504 25.4868L22.2722 24.3793L25.0263 27.6839V38.9724H21.4335C21.1983 38.9721 20.9728 38.8786 20.8065 38.7122C20.6402 38.5459 20.5466 38.3204 20.5463 38.0852V37.0606C20.5463 34.975 19.6516 32.9915 18.0266 31.4756C15.5348 29.1513 14.2482 25.8619 14.4972 22.4516C14.8824 17.1673 19.1343 12.7444 24.3871 12.1635C24.8118 12.1163 25.2388 12.0927 25.6661 12.0926C25.8359 12.0926 25.9987 12.0252 26.1187 11.9051C26.2387 11.7851 26.3061 11.6223 26.3061 11.4526C26.3061 11.2828 26.2387 11.1201 26.1187 11C25.9987 10.88 25.8359 10.8126 25.6661 10.8126C25.1952 10.8126 24.7173 10.8391 24.2464 10.891C18.3906 11.5387 13.6503 16.4687 13.2205 22.3583C12.9434 26.1571 14.3772 29.8215 17.1536 32.4118C18.5162 33.6827 19.2664 35.3337 19.2664 37.0606V38.0852C19.2664 38.9951 19.8314 39.7726 20.6279 40.0934C20.5796 40.2455 20.5464 40.4044 20.5464 40.5724C20.5464 40.934 20.6716 41.2641 20.8746 41.5324C20.6716 41.8007 20.5464 42.1308 20.5464 42.4924C20.5464 43.2651 21.097 43.9113 21.8264 44.0601V44.7596C21.8264 45.8033 22.6756 46.6524 23.7192 46.6524H27.6136C28.6573 46.6524 29.5064 45.8033 29.5064 44.7596V44.0601C30.2359 43.9115 30.7864 43.2651 30.7864 42.4924C30.7864 42.1308 30.6613 41.8007 30.4583 41.5324C30.6613 41.2641 30.7864 40.934 30.7864 40.5724C30.7864 39.6902 30.0687 38.9724 29.1864 38.9724ZM29.1864 40.2524C29.2713 40.2524 29.3527 40.2861 29.4127 40.3461C29.4727 40.4062 29.5064 40.4876 29.5064 40.5724C29.5064 40.6573 29.4727 40.7387 29.4127 40.7987C29.3527 40.8587 29.2713 40.8924 29.1864 40.8924H22.1464C22.0616 40.8924 21.9802 40.8587 21.9202 40.7987C21.8602 40.7387 21.8264 40.6573 21.8264 40.5724C21.8264 40.4876 21.8602 40.4062 21.9202 40.3461C21.9802 40.2861 22.0616 40.2524 22.1464 40.2524H29.1864ZM27.6136 45.3724H23.7192C23.5568 45.3722 23.401 45.3076 23.2862 45.1927C23.1713 45.0778 23.1067 44.9221 23.1064 44.7596V44.0924H28.2264V44.7596C28.2262 44.9221 28.1616 45.0778 28.0467 45.1927C27.9319 45.3076 27.7761 45.3722 27.6136 45.3724ZM29.1864 42.8124H22.1464C22.0616 42.8124 21.9802 42.7787 21.9202 42.7187C21.8602 42.6587 21.8264 42.5773 21.8264 42.4924C21.8264 42.4076 21.8602 42.3262 21.9202 42.2661C21.9802 42.2061 22.0616 42.1724 22.1464 42.1724H29.1864C29.2713 42.1724 29.3527 42.2061 29.4127 42.2661C29.4727 42.3262 29.5064 42.4076 29.5064 42.4924C29.5064 42.5773 29.4727 42.6587 29.4127 42.7187C29.3527 42.7787 29.2713 42.8124 29.1864 42.8124Z" fill="white"/>
<path d="M18.0341 16.7853C17.2584 17.6509 16.6358 18.6424 16.1932 19.7172C16.1532 19.8144 16.1377 19.92 16.1482 20.0246C16.1587 20.1292 16.1947 20.2296 16.2532 20.317C16.3116 20.4044 16.3907 20.476 16.4834 20.5256C16.5761 20.5752 16.6796 20.6012 16.7847 20.6013C16.9116 20.6013 17.0356 20.5636 17.141 20.493C17.2465 20.4223 17.3285 20.322 17.3769 20.2047C17.7641 19.2642 18.3089 18.3965 18.9877 17.6391C19.0991 17.5124 19.1559 17.3468 19.1458 17.1784C19.1358 17.01 19.0596 16.8523 18.9339 16.7398C18.8082 16.6273 18.6431 16.5689 18.4747 16.5774C18.3062 16.586 18.1478 16.6607 18.0341 16.7853ZM22.1242 14.002C21.3502 14.2879 20.6135 14.6662 19.9301 15.1288C19.8166 15.2056 19.7308 15.3168 19.6852 15.4461C19.6396 15.5753 19.6367 15.7158 19.677 15.8468C19.7172 15.9778 19.7984 16.0925 19.9087 16.1739C20.019 16.2552 20.1525 16.2991 20.2895 16.2989C20.4129 16.2989 20.5377 16.2632 20.6476 16.1888C21.2451 15.784 21.8895 15.4531 22.5666 15.2032C22.7259 15.1446 22.8554 15.025 22.9266 14.8709C22.9977 14.7168 23.0047 14.5407 22.9461 14.3814C22.8874 14.2221 22.7679 14.0926 22.6137 14.0215C22.4596 13.9503 22.2835 13.9433 22.1242 14.002ZM39.5473 19.1479C38.9285 18.5292 38.1429 18.1029 37.285 17.9122C37.3805 16.8652 37.0287 15.834 36.298 15.1031C36.2759 15.0701 36.262 15.0333 36.233 15.004C35.4537 14.2157 34.3634 13.9189 33.3493 14.1133C33.3292 13.3554 33.0332 12.6338 32.4946 12.0952C31.3287 10.9293 29.0343 11.0184 27.7737 12.2799C27.6537 12.3999 27.5862 12.5626 27.5861 12.7324V35.7724C27.5861 35.8903 27.6187 36.0059 27.6803 36.1065C27.7418 36.207 27.83 36.2886 27.9349 36.3423C28.4802 36.6207 29.1412 36.7882 29.7943 36.7882C30.5565 36.7882 31.3081 36.5604 31.8527 36.0154C31.9734 35.8948 32.0843 35.7649 32.1845 35.6269C33.5333 36.204 35.162 35.8909 36.274 34.7788C37.2641 33.789 37.6281 32.3581 37.254 31.0804C37.338 31.01 37.4188 30.9359 37.4962 30.8584C38.5949 29.76 38.95 28.164 38.4565 26.7896C38.7912 26.5812 39.101 26.3352 39.3799 26.0565C41.3311 24.1056 41.406 21.0063 39.5473 19.1479ZM37.6762 25.7487C37.0754 25.2944 36.3546 25.0352 35.5879 25.0306C34.6466 25.0391 33.7617 25.3853 33.0925 26.0463C33.0327 26.1053 32.9851 26.1756 32.9525 26.253C32.9198 26.3304 32.9027 26.4136 32.9022 26.4976C32.9017 26.5816 32.9178 26.665 32.9494 26.7428C32.9811 26.8206 33.0279 26.8915 33.0869 26.9512C33.146 27.0111 33.2162 27.0587 33.2937 27.0914C33.3711 27.124 33.4542 27.1411 33.5383 27.1416C33.6223 27.1422 33.7056 27.1261 33.7835 27.0944C33.8613 27.0627 33.9321 27.0159 33.9919 26.9568C34.8593 26.0999 36.2529 26.1015 37.1237 26.9464C37.6186 27.9143 37.4125 29.132 36.5913 29.9536C36.4613 30.0836 36.3125 30.2028 36.1365 30.3173C36.0076 30.4015 35.9134 30.5293 35.8711 30.6773C35.8288 30.8254 35.8413 30.9837 35.9063 31.1232C36.3269 32.0266 36.1109 33.132 35.3692 33.8738C34.6298 34.6132 33.5573 34.8239 32.6804 34.4456C32.6804 34.4444 32.681 34.4434 32.681 34.4423L32.686 33.6052C32.6948 32.217 31.5722 31.0805 30.1837 31.0717H30.1797C30.0957 31.0715 30.0124 31.0878 29.9347 31.1197C29.8569 31.1516 29.7862 31.1985 29.7266 31.2578C29.667 31.317 29.6196 31.3874 29.5872 31.465C29.5548 31.5425 29.538 31.6257 29.5377 31.7097C29.5375 31.7938 29.5538 31.877 29.5857 31.9548C29.6176 32.0325 29.6645 32.1032 29.7238 32.1629C29.783 32.2225 29.8534 32.2698 29.931 32.3022C30.0085 32.3346 30.0917 32.3515 30.1757 32.3517C30.8586 32.356 31.4105 32.9146 31.406 33.5973L31.401 34.4348C31.401 34.44 31.4039 34.4445 31.4041 34.4498C31.3919 34.4704 31.3716 34.4845 31.3617 34.5066C31.2617 34.7312 31.1216 34.9357 30.9482 35.11C30.4757 35.5834 29.5895 35.5994 28.8663 35.3496V13.021C29.6653 12.4088 30.9653 12.3767 31.5897 13.0004C32.0305 13.4412 32.1772 14.1108 31.9828 14.7548C31.8905 14.8277 31.7933 14.8919 31.7077 14.9765C31.0996 15.5772 30.7618 16.3791 30.7565 17.2336C30.7513 18.0882 31.0794 18.894 31.6799 19.5021C31.7394 19.5624 31.8103 19.6103 31.8885 19.6429C31.9667 19.6755 32.0506 19.6923 32.1353 19.6922C32.3037 19.6923 32.4654 19.626 32.5852 19.5076C32.7059 19.3882 32.7742 19.2258 32.7752 19.056C32.7762 18.8863 32.7097 18.7231 32.5905 18.6023C32.2298 18.2376 32.0333 17.7544 32.0364 17.2416C32.0394 16.7288 32.2423 16.2479 32.6069 15.8872C32.8743 15.6229 33.2015 15.4581 33.5444 15.3832C34.2301 15.3056 34.9082 15.5234 35.3921 16.0072C35.9681 16.5832 36.1655 17.4288 35.9202 18.2698C35.8934 18.3616 35.8875 18.4583 35.9031 18.5527C35.9186 18.647 35.9551 18.7367 36.01 18.8151C36.0647 18.8936 36.1364 18.9588 36.2197 19.0059C36.303 19.053 36.3958 19.0808 36.4913 19.0872C37.3234 19.144 38.0673 19.4778 38.6421 20.0528C40.0015 21.4125 39.9265 23.6997 38.4749 25.1516C38.2393 25.3874 37.9658 25.5794 37.6762 25.7487Z" fill="white"/>
</svg>

<svg width="48" height="48" fill="none" xmlns="http://www.w3.org/2000/svg"><path d="M7.746 24.252a.64.64 0 1 0 0-1.28.64.64 0 0 0 0 1.28zM14.069 10.25a.638.638 0 0 0 .905 0l.452-.453.453.453a.638.638 0 0 0 1.092-.453.64.64 0 0 0-.187-.452l-.453-.453.453-.452a.64.64 0 1 0-.905-.905l-.452.452-.453-.452a.64.64 0 1 0-.905.905l.453.452-.453.453a.64.64 0 0 0 0 .905zm-5.043 3.122c-1.058 0-1.92.862-1.92 1.92 0 1.06.862 1.92 1.92 1.92 1.06 0 1.92-.86 1.92-1.92 0-1.058-.86-1.92-1.92-1.92zm0 2.56a.64.64 0 1 1 .002-1.281.64.64 0 0 1-.002 1.281zm20.16 23.04h-2.88v-11.52a.64.64 0 0 0-.148-.41l-3.2-3.84a.64.64 0 0 0-.73-.184l-3.2 1.28a.64.64 0 0 0 .476 1.189l2.768-1.108 2.754 3.305v11.288h-3.593a.888.888 0 0 1-.887-.887v-1.024c0-2.086-.894-4.07-2.52-5.585a11.169 11.169 0 0 1-3.529-9.024c.385-5.285 4.637-9.708 9.89-10.289.425-.047.852-.07 1.28-.07a.64.64 0 1 0 0-1.28c-.472 0-.95.026-1.42.078-5.856.648-10.597 5.578-11.027 11.467a12.445 12.445 0 0 0 3.934 10.054c1.362 1.27 2.112 2.922 2.112 4.649v1.024c0 .91.565 1.688 1.362 2.008a1.574 1.574 0 0 0-.082.48c0 .361.126.691.329.96a1.585 1.585 0 0 0-.329.96c0 .772.551 1.418 1.28 1.567v.7c0 1.043.85 1.892 1.893 1.892h3.895c1.043 0 1.892-.849 1.892-1.892v-.7a1.602 1.602 0 0 0 1.28-1.568c0-.361-.125-.691-.328-.96.203-.268.328-.598.328-.96 0-.882-.717-1.6-1.6-1.6zm0 1.28a.32.32 0 1 1 0 .64h-7.04a.32.32 0 0 1 0-.64h7.04zm-1.572 5.12h-3.895a.613.613 0 0 1-.613-.612v-.668h5.12v.668a.613.613 0 0 1-.612.612zm1.572-2.56h-7.04a.32.32 0 0 1 0-.64h7.04a.32.32 0 1 1 0 .64z" fill="#fff"/><path d="M18.034 16.785a10.23 10.23 0 0 0-1.84 2.932.64.64 0 0 0 1.183.488 8.949 8.949 0 0 1 1.61-2.566.64.64 0 0 0-.953-.854zm4.09-2.783a10.25 10.25 0 0 0-2.194 1.127.64.64 0 1 0 .718 1.06 8.94 8.94 0 0 1 1.919-.986.64.64 0 1 0-.443-1.201zm17.423 5.146a4.61 4.61 0 0 0-2.262-1.236c.096-1.047-.256-2.078-.987-2.809-.022-.033-.036-.07-.065-.099a3.2 3.2 0 0 0-2.884-.89 2.95 2.95 0 0 0-.854-2.019c-1.166-1.166-3.46-1.077-4.721.185a.64.64 0 0 0-.188.452v23.04a.64.64 0 0 0 .349.57 4.174 4.174 0 0 0 1.86.446c.761 0 1.513-.228 2.058-.773.12-.12.231-.25.331-.388 1.35.577 2.978.264 4.09-.848.99-.99 1.354-2.42.98-3.699.084-.07.165-.144.242-.222 1.099-1.098 1.454-2.694.96-4.068a5.18 5.18 0 0 0 .924-.733c1.951-1.951 2.026-5.05.167-6.91zm-1.87 6.6a3.482 3.482 0 0 0-2.09-.717c-.94.008-1.825.354-2.495 1.015a.639.639 0 1 0 .9.91 2.24 2.24 0 0 1 3.132-.01c.495.968.288 2.186-.533 3.008-.13.13-.279.249-.455.363a.64.64 0 0 0-.23.806c.42.904.205 2.009-.537 2.75-.74.74-1.812.95-2.689.573l.001-.004.005-.837a2.52 2.52 0 0 0-2.502-2.533h-.004a.641.641 0 0 0-.249 1.23c.078.033.16.05.245.05a1.239 1.239 0 0 1 1.23 1.245l-.005.838.003.015c-.012.02-.032.034-.042.057-.1.224-.24.429-.414.603-.472.473-1.358.49-2.082.24V13.02c.8-.612 2.1-.644 2.724-.02.44.44.587 1.11.393 1.754-.093.073-.19.137-.275.221a3.18 3.18 0 0 0-.951 2.258 3.18 3.18 0 0 0 .923 2.268.638.638 0 0 0 .905.006.64.64 0 0 0 .005-.906 1.905 1.905 0 0 1-.554-1.36 1.909 1.909 0 0 1 1.508-1.859 2.237 2.237 0 0 1 1.848.624c.576.576.773 1.422.528 2.263a.638.638 0 0 0 .571.817c.832.057 1.576.39 2.151.966 1.36 1.36 1.284 3.647-.167 5.099-.236.235-.51.427-.799.597z" fill="#fff"/></svg>
